packages/foundations/assets/icons/functional/images/business & payment/shopping_basket_disabled_20_filled.svg

<svg width="20" height="20" viewBox="0 0 20 20" fill="none" xmlns="http://www.w3.org/2000/svg">
<g clip-path="url(#clip0_2202_1483)">
<path fill-rule="evenodd" clip-rule="evenodd" d="M9.9685 2.49988C11.5955 2.49988 12.8855 3.31288 13.5325 4.55288L14.7925 3.29288C14.9811 3.11072 15.2337 3.00993 15.4959 3.0122C15.7581 3.01448 16.0089 3.11965 16.1943 3.30506C16.3797 3.49047 16.4849 3.74128 16.4872 4.00348C16.4895 4.26567 16.3887 4.51828 16.2065 4.70688C12.0417 8.87537 7.87499 13.042 3.7065 17.2069C3.61363 17.2999 3.50334 17.3736 3.38194 17.4239C3.26054 17.4743 3.13042 17.5002 2.999 17.5002C2.86758 17.5002 2.73746 17.4743 2.61606 17.4239C2.49466 17.3736 2.38437 17.2999 2.2915 17.2069C1.9315 16.8469 1.8755 16.2419 2.2915 15.7929C2.6615 15.4189 3.0335 15.0469 3.4065 14.6759L2.0195 7.69888C1.99216 7.55129 1.99731 7.39951 2.0346 7.25412C2.07189 7.10872 2.14041 6.9732 2.2354 6.85698C2.33039 6.74077 2.44957 6.64665 2.58464 6.58117C2.71971 6.5157 2.86742 6.48045 3.0175 6.47788H6.0095C6.0095 4.25388 7.6295 2.49988 9.9685 2.49988ZM17.2285 6.50888C17.7295 6.63888 18.0885 7.15788 17.9805 7.69888L16.4215 15.6859C16.3275 16.1559 15.8915 16.4999 15.4235 16.4999H7.2355L17.2285 6.50888ZM9.9995 4.49988C8.7525 4.49988 8.0045 5.34588 8.0045 6.50388H11.5795L11.9645 6.12088C11.8115 5.16388 11.0765 4.49988 9.9995 4.49988Z" fill="#1A1C1F"/>
</g>
<defs>
<clipPath id="clip0_2202_1483">
<rect width="20" height="20" fill="white"/>
</clipPath>
</defs>
</svg>

<svg xmlns="http://www.w3.org/2000/svg" width="20" height="20" fill="none"><g clip-path="url(#a)"><path fill="#1A1C1F" fill-rule="evenodd" d="M9.969 2.5c1.627 0 2.917.813 3.564 2.053l1.26-1.26a1 1 0 0 1 1.413 1.414 20236 20236 0 0 1-12.5 12.5.999.999 0 1 1-1.414-1.414q.555-.56 1.115-1.117L2.019 7.699a1.033 1.033 0 0 1 .999-1.221H6.01C6.01 4.254 7.63 2.5 9.969 2.5m7.26 4.009c.5.13.86.649.752 1.19l-1.56 7.987c-.093.47-.53.814-.997.814H7.236zm-7.23-2.01c-1.247 0-1.995.847-1.995 2.005h3.576l.384-.383C11.813 5.164 11.077 4.5 10 4.5" clip-rule="evenodd"/></g><defs><clipPath id="a"><path fill="#fff" d="M0 0h20v20H0z"/></clipPath></defs></svg>
